X: 1
T: Whistle Ower The Lave O't
M: 4/4
L: 1/8
R: strathspey
K: Amaj
|:  A4 A3B| c2 B2 ce3|e2fg a2e2|c2A2 A=G3|
A4 A3B|c2B2 ce3|A3B c2A2|B4 A4:|
|:e2fg a2g2|f2e2 fa3|e2fg a2e2|c2A2 A=G3|
e2fg a2g2|f2e2 fa3|A3B c2A2|B4 A4:|
